public/img/general/logos/mercedes_benz_logo_black.svg

<svg width="67" height="68" viewBox="0 0 67 68" fill="none" xmlns="http://www.w3.org/2000/svg">
<path d="M31.1605 0.035408C30.8993 0.0627518 30.0871 0.159142 29.3713 0.241867C16.6816 1.68716 5.68475 10.7021 1.63808 23.0068C0.467633 26.5571 0 29.5715 0 33.5354C0 36.4943 0.137418 37.9123 0.688459 40.5683C3.3582 53.3954 13.6393 63.6772 26.4671 66.3469C29.1231 66.8973 30.5411 67.0354 33.5 67.0354C36.4589 67.0354 37.8769 66.898 40.533 66.3469C53.36 63.6765 63.6418 53.3954 66.3115 40.5683C66.8626 37.9123 67 36.4943 67 33.5354C67 29.6952 66.5734 26.7636 65.4863 23.337C61.5915 11.0466 51.0759 2.18282 38.1114 0.283577C36.7755 0.0900955 32.1238 -0.0746689 31.1605 0.035408ZM38.7021 3.3936C50.5385 5.41659 60.1592 14.2531 63.0908 25.814C63.8202 28.6772 63.9713 29.9844 63.9713 33.4664C63.9713 37.554 63.6685 39.4396 62.3886 43.2381C61.8793 44.7381 60.3793 48.0142 60.1865 48.0416C60.1448 48.0553 55.2866 43.9129 49.3961 38.8339C43.5056 33.7555 38.6337 29.5715 38.5647 29.5298C38.4683 29.4751 34.0504 3.58572 34.0504 3.06271C34.0504 2.88427 36.8309 3.07706 38.7021 3.3936ZM32.9496 3.15979C32.9496 3.32524 28.6828 30.1498 28.6555 30.1635C28.6281 30.1772 23.7973 34.2922 17.8924 39.3295C12.0019 44.3532 7.12935 48.4819 7.07465 48.5099C6.95091 48.5509 5.89121 46.4042 5.31283 44.9452C3.70209 40.8849 2.97261 36.7835 3.12439 32.5721C3.30351 27.8377 4.28048 23.9701 6.35885 19.8407C10.7494 11.1013 19.2413 4.90726 28.8209 3.47633C30.8439 3.17347 32.9496 3.02169 32.9496 3.15979ZM45.6667 43.4999C52.4104 45.8812 58.3426 47.9732 58.8657 48.138C59.375 48.3171 59.7879 48.5236 59.7879 48.5783C59.7879 48.6473 59.444 49.2387 59.0174 49.8861C55.5075 55.281 50.4291 59.4377 44.5242 61.7362C38.6064 64.0484 31.9993 64.434 25.8333 62.8376C19.5572 61.2276 13.7213 57.4147 9.70269 52.3364C8.75307 51.1393 7.51426 49.3495 7.45956 49.0883C7.43221 48.9919 12.3458 47.0653 20.2873 44.0647C27.3613 41.3942 33.2108 39.2058 33.2799 39.1921C33.3482 39.1784 38.9229 41.1187 45.6667 43.4999Z" fill="black"/>
</svg>

<svg width="67" height="68" fill="none" xmlns="http://www.w3.org/2000/svg"><path d="M31.16.035c-.26.028-1.073.124-1.789.207-12.69 1.445-23.686 10.46-27.733 22.765C.468 26.557 0 29.57 0 33.535c0 2.96.137 4.377.688 7.033 2.67 12.827 12.951 23.11 25.78 25.779 2.655.55 4.073.688 7.032.688 2.959 0 4.377-.137 7.033-.688 12.827-2.67 23.109-12.952 25.778-25.779.552-2.656.689-4.074.689-7.033 0-3.84-.427-6.771-1.514-10.198C61.591 11.047 51.076 2.183 38.111.284c-1.335-.194-5.987-.359-6.95-.249zm7.542 3.359c11.837 2.023 21.457 10.86 24.389 22.42.73 2.863.88 4.17.88 7.652 0 4.088-.302 5.974-1.582 9.772-.51 1.5-2.01 4.776-2.203 4.804-.041.013-4.9-4.13-10.79-9.208-5.89-5.079-10.762-9.263-10.831-9.304-.097-.055-4.515-25.944-4.515-26.467 0-.179 2.78.014 4.652.33zM32.95 3.16c0 .165-4.267 26.99-4.295 27.003-.027.014-4.858 4.13-10.763 9.167-5.89 5.023-10.763 9.152-10.817 9.18-.124.04-1.184-2.106-1.762-3.565-1.61-4.06-2.34-8.162-2.189-12.373.18-4.734 1.156-8.602 3.235-12.731C10.749 11.1 19.24 4.907 28.82 3.476c2.023-.303 4.129-.454 4.129-.316zM45.667 43.5c6.743 2.381 12.676 4.473 13.199 4.638.509.18.922.386.922.44 0 .07-.344.66-.77 1.308-3.51 5.395-8.589 9.552-14.494 11.85-5.918 2.312-12.525 2.698-18.69 1.102-6.277-1.61-12.113-5.423-16.131-10.502-.95-1.197-2.189-2.986-2.243-3.248-.028-.096 4.886-2.023 12.827-5.023 7.074-2.67 12.924-4.86 12.993-4.873.068-.014 5.643 1.927 12.387 4.308z" fill="#000"/></svg>
